!!!OTL: ES WOLLT EIN MAEGDLEIN EIN BULEN HAN
!!!ARE: Europa, Mitteleuropa, Deutschland
!!!SCT: E0859A
!!!YEM: Copyright 1995, estate of Helmut Schaffrath.
**kern
*ICvox
*Ivox
*M4/4
*k[f#]
*G:
{4g
=1
4g
4a
4b
4cc
=2
4dd
4dd
2dd}
=3
{8b
8cc
4dd
8b
8cc
4dd
=4
4cc
4b
4a}
{4dd
=5
4dd
4a
4b
4g
=6
4f#
4g
2a}
=7
{4b
4a
4g
4g
=8
4g
4f#
4g}
==
!!!AGN: Hochzeits -, Ehestands - Lied
!!!ONB: ESAC (Essen Associative Code) Database: ERK2
!!!AMT: simple quadruple
!!!AIN: vox
!!!EED: Helmut Schaffrath
!!!EEV: 1.0
*-
